X: 41577
T: Untitled
R: reel
M: 4/4
K: Dmajor
DDAd AcAG|FFGA dAEF|DDAd AcAG|FEFG AGcG|
d2Dd AcAG|FFGA dDAc|defg fAcd|(3ega c'a d'zz2||

